build/img/pricing/time-icon.svg

<svg width="21" height="16" viewBox="0 0 21 16" fill="none" xmlns="http://www.w3.org/2000/svg">
<g id="Layer_1" clip-path="url(#clip0_556_597)">
<path id="Vector" d="M5.86225 8.40631C5.85766 4.22427 9.23811 0.842905 13.4302 0.837408C17.6013 0.831911 20.9927 4.21144 21.0001 8.38249C21.0074 12.5874 17.6095 15.9853 13.4064 15.9771C9.23445 15.9688 5.86591 12.5884 5.86133 8.40631L5.86225 8.40631ZM19.5334 8.41364C19.5288 5.01854 16.8198 2.31051 13.422 2.3041C10.058 2.29769 7.32802 5.03411 7.32985 8.41089C7.33169 11.7849 10.0608 14.5131 13.4302 14.5094C16.8098 14.5058 19.5389 11.7803 19.5343 8.41364L19.5334 8.41364Z" fill="#131313" fill-opacity="0.3"/>
<path id="Vector_2" d="M2.68787 7.67436C3.31266 7.67436 3.93836 7.67344 4.56315 7.67436C5.04136 7.67527 5.37482 7.98583 5.36841 8.41824C5.36199 8.84057 5.03219 9.13922 4.56315 9.14013C3.30533 9.14197 2.04751 9.14197 0.789687 9.14013C0.322471 9.13922 1.01588e-07 8.83599 6.41067e-08 8.40725C2.63848e-08 7.97576 0.319723 7.67619 0.789687 7.67527C1.42272 7.67344 2.05484 7.67527 2.68787 7.67527L2.68787 7.67436Z" fill="#131313" fill-opacity="0.3"/>
<path id="Vector_3" d="M3.15393 6.20948C2.68946 6.20948 2.225 6.21131 1.75961 6.20948C1.29972 6.20673 0.969925 5.89433 0.972673 5.47017C0.976338 5.05426 1.30064 4.74553 1.74862 4.74461C2.69313 4.74187 3.63764 4.74187 4.58215 4.74461C5.04295 4.74553 5.37275 5.05884 5.36909 5.483C5.36542 5.90624 5.03562 6.20764 4.57024 6.21039C4.09753 6.21222 3.62573 6.21039 3.15302 6.21039L3.15393 6.20948Z" fill="#131313" fill-opacity="0.3"/>
<path id="Vector_4" d="M3.17322 12.0726C2.70051 12.0726 2.22871 12.0753 1.756 12.0726C1.29703 12.0698 0.967227 11.7547 0.972724 11.3305C0.977305 10.9146 1.30252 10.6086 1.75142 10.6077C2.69593 10.605 3.64044 10.605 4.58495 10.6077C5.04392 10.6086 5.37372 10.9247 5.36914 11.3498C5.36456 11.7638 5.03751 12.0707 4.58953 12.0735C4.11682 12.0762 3.64502 12.0735 3.17231 12.0735L3.17322 12.0726Z" fill="#131313" fill-opacity="0.3"/>
<path id="Vector_5" d="M5.1184 3.27794C4.65301 3.27794 4.18671 3.27977 3.72133 3.27794C3.2532 3.27519 2.93073 2.97288 2.93164 2.54322C2.93164 2.11173 3.25228 1.814 3.72408 1.81308C4.65485 1.81125 5.58653 1.81125 6.5173 1.81308C6.98543 1.81308 7.31798 2.11356 7.32531 2.53589C7.33264 2.96463 6.99276 3.27702 6.51455 3.27886C6.04917 3.28069 5.58378 3.27886 5.11748 3.27886L5.1184 3.27794Z" fill="#131313" fill-opacity="0.3"/>
<path id="Vector_6" d="M5.12292 15.0041C4.6493 15.0041 4.17658 15.0069 3.70295 15.0041C3.25131 15.0004 2.9325 14.6963 2.93067 14.2749C2.92884 13.8507 3.2449 13.5411 3.69562 13.5402C4.6493 13.5365 5.60388 13.5365 6.55755 13.5402C6.99912 13.542 7.33075 13.8681 7.32434 14.2804C7.31793 14.6871 6.99545 15.0004 6.56397 15.0041C6.08301 15.0087 5.60205 15.005 5.12109 15.005L5.12292 15.0041Z" fill="#131313" fill-opacity="0.3"/>
<path id="Vector_7" d="M14.1645 6.24705C14.1645 6.80404 14.1581 7.36195 14.1709 7.91895C14.1737 8.02522 14.2268 8.15531 14.301 8.23226C14.8269 8.7746 15.3664 9.30411 15.8987 9.84095C16.1186 10.0626 16.1735 10.3329 16.0673 10.6224C15.9665 10.8954 15.7567 11.052 15.4672 11.0896C15.2428 11.118 15.0421 11.0502 14.8818 10.8908C14.2213 10.234 13.5553 9.58261 12.9122 8.90927C12.7931 8.78467 12.7106 8.57122 12.7079 8.39716C12.6914 7.09995 12.696 5.80182 12.7006 4.50369C12.7024 4.08411 13.0166 3.77538 13.4215 3.7708C13.8375 3.76622 14.159 4.07678 14.1636 4.50644C14.17 5.08634 14.1654 5.66715 14.1654 6.24705L14.1645 6.24705Z" fill="#131313" fill-opacity="0.3"/>
</g>
<defs>
<clipPath id="clip0_556_597">
<rect width="21" height="15.1396" fill="white" transform="translate(0 0.837402)"/>
</clipPath>
</defs>
</svg>

<svg width="21" height="16" fill="none" xmlns="http://www.w3.org/2000/svg"><g id="Layer_1" clip-path="url(#clip0_556_597)" fill="#131313" fill-opacity=".3"><path id="Vector" d="M5.862 8.406C5.858 4.224 9.238.843 13.43.837A7.562 7.562 0 0121 8.382a7.572 7.572 0 01-7.594 7.595c-4.172-.008-7.54-3.389-7.545-7.57h.001zm13.671.008a6.09 6.09 0 00-6.111-6.11c-3.364-.006-6.094 2.73-6.092 6.107a6.094 6.094 0 006.1 6.098c3.38-.003 6.109-2.729 6.104-6.095z"/><path id="Vector_2" d="M2.688 7.674h1.875c.478.001.812.312.805.744-.006.423-.336.721-.805.722-1.258.002-2.515.002-3.773 0-.468 0-.79-.304-.79-.733 0-.431.32-.73.79-.732.633-.002 1.265 0 1.898 0z"/><path id="Vector_3" d="M3.154 6.21H1.76c-.46-.003-.79-.316-.787-.74.003-.416.328-.724.776-.725.944-.003 1.889-.003 2.833 0 .461 0 .79.314.787.738-.004.423-.333.725-.799.727-.472.002-.944 0-1.417 0z"/><path id="Vector_4" d="M3.173 12.073c-.472 0-.944.002-1.417 0-.459-.003-.789-.318-.783-.742.004-.416.33-.722.778-.723.945-.003 1.89-.003 2.834 0 .459 0 .789.317.784.742-.004.414-.331.72-.78.723-.472.003-.944 0-1.417 0h.001z"/><path id="Vector_5" d="M5.118 3.278c-.465 0-.931.002-1.397 0-.468-.003-.79-.305-.79-.735 0-.431.321-.729.793-.73.93-.002 1.863-.002 2.793 0 .468 0 .801.3.808.723.008.429-.332.741-.81.743-.466.002-.931 0-1.398 0l.001-.001z"/><path id="Vector_6" d="M5.123 15.004c-.474 0-.946.003-1.42 0-.452-.004-.77-.308-.772-.73-.002-.423.314-.733.765-.734a368.95 368.95 0 012.862 0c.441.002.773.328.766.74-.006.407-.329.72-.76.724-.481.005-.962.001-1.443.001h.002z"/><path id="Vector_7" d="M14.165 6.247c0 .557-.007 1.115.006 1.672a.511.511 0 00.13.313c.526.543 1.065 1.072 1.598 1.609a.7.7 0 01.168.781c-.1.273-.31.43-.6.468a.68.68 0 01-.585-.2c-.66-.656-1.327-1.307-1.97-1.98a.825.825 0 01-.204-.513 229.614 229.614 0 01-.007-3.893.717.717 0 01.72-.733.72.72 0 01.743.735c.006.58.001 1.161.001 1.741z"/></g><defs><clipPath id="clip0_556_597"><path fill="#fff" transform="translate(0 .837)" d="M0 0h21v15.14H0z"/></clipPath></defs></svg>
